assets/icons/printer/printing.svg

<?xml version="1.0" encoding="UTF-8" standalone="no"?>
<svg viewBox="0 0 24 24" height="24" width="24" version="1.1" id="svg4" sodipodi:docname="printing.svg" inkscape:version="1.1 (ce6663b3b7, 2021-05-25)"
   xmlns:inkscape="http://www.inkscape.org/namespaces/inkscape"
   xmlns:sodipodi="http://sodipodi.sourceforge.net/DTD/sodipodi-0.dtd"
   xmlns="http://www.w3.org/2000/svg"
   xmlns:svg="http://www.w3.org/2000/svg">
   <defs id="defs8" />
   <sodipodi:namedview id="namedview6" pagecolor="#ffffff" bordercolor="#666666" borderopacity="1.0" inkscape:pageshadow="2" inkscape:pageopacity="0.0" inkscape:pagecheckerboard="0" showgrid="true" inkscape:zoom="39.59798" inkscape:cx="9.5585685" inkscape:cy="12.828937" inkscape:window-width="1920" inkscape:window-height="1043" inkscape:window-x="1920" inkscape:window-y="0" inkscape:window-maximized="1" inkscape:current-layer="svg4">
      <inkscape:grid type="xygrid" id="grid1065" />
   </sodipodi:namedview>
   <path id="rect867" style="fill:#808080;fill-opacity:1;fill-rule:evenodd;stroke-width:0.5;stroke-linecap:round;stroke-linejoin:round" d="m 6,2.0000003 v 5.0078125 c -1.0668688,0.02974 -1.979589,0.1711376 -2.7050781,0.6328125 -0.8363806,0.5322422 -1.2949219,1.5093764 -1.2949219,2.8593747 v 4.000001 c 0,1.349999 0.4585413,2.327133 1.2949219,2.859375 0.7254891,0.461675 1.6382093,0.603072 2.7050781,0.632812 v 4.007812 h 12 v -4.007812 c 1.066869,-0.02974 1.97959,-0.171137 2.705078,-0.632812 0.836381,-0.532242 1.294922,-1.509376 1.294922,-2.859375 v -4.000001 c 0,-1.3499983 -0.458541,-2.3271325 -1.294922,-2.8593748 -0.725488,-0.4616749 -1.638209,-0.6030727 -2.705078,-0.6328125 v -5.0078124 z m 1,1 h 10 v 4 h -9.9999999 z m -0.5,5 h 0.5 10 0.5 c 1.216665,0 2.131304,0.1416181 2.669922,0.484375 0.538618,0.3427569 0.830078,0.8656262 0.830078,2.0156247 v 4.000001 c 0,1.149999 -0.29146,1.672868 -0.830078,2.015625 -0.461756,0.293845 -1.202068,0.43892 -2.169922,0.474609 v -1.990234 h -1 v 5.999999 h -9.9999999 v -5.999999 h -1 v 1.990234 c -0.9678539,-0.03569 -1.7081659,-0.180764 -2.1699219,-0.474609 -0.538618,-0.342757 -0.8300781,-0.865626 -0.8300781,-2.015625 v -4.000001 c 0,-1.1499985 0.2914601,-1.6728678 0.8300781,-2.0156247 0.538618,-0.3427569 1.4532564,-0.484375 2.6699218,-0.484375 z m 11.5,1.9999997 c -0.552285,0 -1,0.447715 -1,1 0,0.552285 0.447715,1 1,1 0.552285,0 1,-0.447715 1,-1 0,-0.552285 -0.447715,-1 -1,-1 z" sodipodi:nodetypes="ccssssccccssssccccccccsccsssssccccccccssssssssss" />
   <path id="rect1111" style="fill:#808080;fill-opacity:1;fill-rule:evenodd" d="m 11,13 v 3 h -1.5 l 2.5,4 2.5,-4 h -1.5 v -3 z" sodipodi:nodetypes="cccccccc" />
</svg>

<svg height="24" width="24" xmlns="http://www.w3.org/2000/svg"><path style="fill:gray;fill-opacity:1;stroke-width:.5;stroke-linecap:round;stroke-linejoin:round" d="M6 2v5.008c-1.067.03-1.98.171-2.705.633C2.459 8.173 2 9.15 2 10.5v4c0 1.35.459 2.327 1.295 2.86.725.461 1.638.602 2.705.632V22h12v-4.008c1.067-.03 1.98-.17 2.705-.633C21.541 16.827 22 15.85 22 14.5v-4c0-1.35-.459-2.327-1.295-2.86-.725-.461-1.638-.602-2.705-.632V2zm1 1h10v4H7zm-.5 5h11c1.217 0 2.131.142 2.67.484.539.343.83.866.83 2.016v4c0 1.15-.291 1.673-.83 2.016-.462.293-1.202.439-2.17.474V15h-1v6H7v-6H6v1.99c-.968-.035-1.708-.18-2.17-.474C3.291 16.173 3 15.65 3 14.5v-4c0-1.15.291-1.673.83-2.016C4.37 8.142 5.283 8 6.5 8zM18 10a1 1 0 1 0 0 2 1 1 0 0 0 0-2z"/><path style="fill:gray;fill-opacity:1" d="M11 13v3H9.5l2.5 4 2.5-4H13v-3z"/></svg>
